static/assets/images/icons/drop.svg

<svg width="256" height="256" viewBox="0 0 256 256" fill="none" xmlns="http://www.w3.org/2000/svg">
<path fill-rule="evenodd" clip-rule="evenodd" d="M128 220C108.109 220 89.0322 212.086 74.967 197.999C60.9018 183.912 53 164.806 53 144.884C53 108.411 92.7857 53.6747 114.402 26.6268C121.464 17.7911 134.536 17.7911 141.598 26.6268C163.214 53.6747 203 108.411 203 144.884C203 164.806 195.098 183.912 181.033 197.999C166.968 212.086 147.891 220 128 220ZM102.843 96.146C103.214 93.9413 103.566 91.8068 103.896 89.7427C104.032 88.8654 103.733 87.956 103.088 87.291C101.712 85.8786 99.0833 86.114 98.2952 87.7997C96.5728 91.4755 94.3607 95.2275 92.0011 99.1914C84.5042 111.845 76.0194 126.199 78.4082 146.358C78.5658 147.752 79.0065 149.1 79.705 150.325C80.4035 151.55 81.3461 152.628 82.479 153.498C83.6118 154.368 84.9126 155.012 86.307 155.393C87.7013 155.774 89.1618 155.886 90.6049 155.721C95.8831 155.099 101.151 151.154 100.056 141.911C98.0357 124.864 100.589 109.612 102.84 96.1624L102.843 96.146Z" fill="black"/>
</svg>

<svg xmlns="http://www.w3.org/2000/svg" fill="none" viewBox="0 0 256 256"><path fill="#000" fill-rule="evenodd" d="M128 220a74.94 74.94 0 0 1-53.033-22.001A75.18 75.18 0 0 1 53 144.884c0-36.473 39.786-91.21 61.402-118.257 7.062-8.836 20.134-8.836 27.196 0C163.214 53.675 203 108.41 203 144.884a75.18 75.18 0 0 1-21.967 53.115A74.94 74.94 0 0 1 128 220M102.843 96.146q.557-3.308 1.053-6.403c.136-.878-.163-1.787-.808-2.452-1.376-1.412-4.005-1.177-4.793.509-1.722 3.675-3.934 7.428-6.294 11.391-7.497 12.654-15.982 27.008-13.593 47.167a10.4 10.4 0 0 0 1.297 3.967 10.7 10.7 0 0 0 2.774 3.173 11.1 11.1 0 0 0 3.828 1.895c1.394.381 2.855.493 4.298.328 5.278-.622 10.546-4.567 9.451-13.81-2.02-17.047.533-32.299 2.784-45.749z" clip-rule="evenodd"/></svg>
